images/11949197.svg

<?xml version="1.0" encoding="UTF-8"?>
<svg xmlns="http://www.w3.org/2000/svg" xmlns:xlink="http://www.w3.org/1999/xlink" width="300pt" height="300pt" viewBox="0 0 300 300" version="1.1">
<defs>
<g>
<symbol overflow="visible" id="glyph0-0">
<path style="stroke:none;" d="M 0.453125 1.59375 L 0.453125 -6.34375 L 4.953125 -6.34375 L 4.953125 1.59375 Z M 0.953125 1.09375 L 4.453125 1.09375 L 4.453125 -5.84375 L 0.953125 -5.84375 Z M 0.953125 1.09375 "/>
</symbol>
<symbol overflow="visible" id="glyph0-1">
<path style="stroke:none;" d="M 0.890625 -6.5625 L 2.078125 -6.5625 L 4.984375 -1.078125 L 4.984375 -6.5625 L 5.84375 -6.5625 L 5.84375 0 L 4.65625 0 L 1.75 -5.484375 L 1.75 0 L 0.890625 0 Z M 0.890625 -6.5625 "/>
</symbol>
</g>
</defs>
<g id="surface36133">
<rect x="0" y="0" width="300" height="300" style="fill:rgb(100%,100%,100%);fill-opacity:1;stroke:none;"/>
<path style="fill:none;stroke-width:1.2;stroke-linecap:butt;stroke-linejoin:miter;stroke:rgb(0%,0%,0%);stroke-opacity:1;stroke-miterlimit:10;" d="M 223.875 187.042969 L 214.152344 180.070312 "/>
<path style="fill:none;stroke-width:1.2;stroke-linecap:butt;stroke-linejoin:miter;stroke:rgb(0%,0%,100%);stroke-opacity:1;stroke-miterlimit:10;" d="M 214.152344 180.070312 L 204.433594 173.097656 "/>
<path style="fill:none;stroke-width:1.2;stroke-linecap:butt;stroke-linejoin:miter;stroke:rgb(0%,0%,100%);stroke-opacity:1;stroke-miterlimit:10;" d="M 204.433594 173.097656 L 193.078125 176.859375 "/>
<path style="fill:none;stroke-width:1.2;stroke-linecap:butt;stroke-linejoin:miter;stroke:rgb(0%,0%,0%);stroke-opacity:1;stroke-miterlimit:10;" d="M 193.078125 176.859375 L 181.722656 180.625 "/>
<path style="fill:none;stroke-width:1.2;stroke-linecap:butt;stroke-linejoin:miter;stroke:rgb(0%,0%,0%);stroke-opacity:1;stroke-miterlimit:10;" d="M 204.289062 149.167969 L 204.363281 161.132812 "/>
<path style="fill:none;stroke-width:1.2;stroke-linecap:butt;stroke-linejoin:miter;stroke:rgb(0%,0%,100%);stroke-opacity:1;stroke-miterlimit:10;" d="M 204.363281 161.132812 L 204.433594 173.097656 "/>
<path style=" stroke:none;fill-rule:nonzero;fill:rgb(100%,100%,100%);fill-opacity:1;" d="M 201.433594 167.597656 L 208.433594 167.597656 L 208.433594 178.597656 L 201.433594 178.597656 Z M 201.433594 167.597656 "/>
<g style="fill:rgb(0%,0%,100%);fill-opacity:1;">
  <use xlink:href="#glyph0-1" x="201.433594" y="176.260742"/>
</g>
<path style="fill:none;stroke-width:1;stroke-linecap:butt;stroke-linejoin:miter;stroke:rgb(0%,0%,0%);stroke-opacity:1;stroke-miterlimit:10;" d="M 167.542969 161.355469 L 167.542969 161.355469 M 168.875 164.042969 L 169.714844 163.425781 M 170.207031 166.730469 L 171.886719 165.496094 M 171.535156 169.421875 L 174.054688 167.566406 M 172.867188 172.109375 L 176.226562 169.636719 M 174.199219 174.796875 L 178.398438 171.707031 M 175.527344 177.484375 L 180.566406 173.777344 M 176.859375 180.175781 L 182.738281 175.847656 M 178.191406 182.863281 L 184.910156 177.917969 M 178.320312 183.128906 L 185.125 178.125 "/>
<path style="fill:none;stroke-width:1.2;stroke-linecap:butt;stroke-linejoin:miter;stroke:rgb(0%,0%,0%);stroke-opacity:1;stroke-miterlimit:10;" d="M 167.542969 161.355469 L 144.742188 154.097656 "/>
<path style="fill:none;stroke-width:1.2;stroke-linecap:butt;stroke-linejoin:miter;stroke:rgb(0%,0%,0%);stroke-opacity:1;stroke-miterlimit:10;" d="M 181.492188 141.914062 L 167.542969 161.355469 "/>
<path style="fill:none;stroke-width:1.2;stroke-linecap:butt;stroke-linejoin:miter;stroke:rgb(0%,0%,0%);stroke-opacity:1;stroke-miterlimit:10;" d="M 144.742188 154.097656 L 149.246094 131.648438 "/>
<path style="fill:none;stroke-width:1.2;stroke-linecap:butt;stroke-linejoin:miter;stroke:rgb(0%,0%,0%);stroke-opacity:1;stroke-miterlimit:10;" d="M 144.742188 154.097656 L 125.472656 168.277344 "/>
<path style="fill:none;stroke-width:1.2;stroke-linecap:butt;stroke-linejoin:miter;stroke:rgb(0%,0%,0%);stroke-opacity:1;stroke-miterlimit:10;" d="M 149.246094 131.648438 L 160.238281 152.902344 "/>
<path style="fill:none;stroke-width:1.2;stroke-linecap:butt;stroke-linejoin:miter;stroke:rgb(0%,0%,0%);stroke-opacity:1;stroke-miterlimit:10;" d="M 149.246094 131.648438 L 126.449219 124.394531 "/>
<path style="fill:none;stroke-width:1.2;stroke-linecap:butt;stroke-linejoin:miter;stroke:rgb(0%,0%,0%);stroke-opacity:1;stroke-miterlimit:10;" d="M 170.5 120.660156 L 149.246094 131.648438 "/>
<path style="fill:none;stroke-width:1.2;stroke-linecap:butt;stroke-linejoin:miter;stroke:rgb(0%,0%,0%);stroke-opacity:1;stroke-miterlimit:10;" d="M 160.238281 152.902344 L 181.492188 141.914062 "/>
<path style="fill:none;stroke-width:1.2;stroke-linecap:butt;stroke-linejoin:miter;stroke:rgb(0%,0%,0%);stroke-opacity:1;stroke-miterlimit:10;" d="M 181.492188 141.914062 L 170.5 120.660156 "/>
<path style="fill:none;stroke-width:1.2;stroke-linecap:butt;stroke-linejoin:miter;stroke:rgb(0%,0%,0%);stroke-opacity:1;stroke-miterlimit:10;" d="M 181.492188 141.914062 L 204.289062 149.167969 "/>
<path style=" stroke:none;fill-rule:nonzero;fill:rgb(0%,0%,0%);fill-opacity:1;" d="M 204.289062 149.167969 L 226.0625 138.390625 L 221.058594 131.589844 Z M 204.289062 149.167969 "/>
<path style="fill:none;stroke-width:1.2;stroke-linecap:butt;stroke-linejoin:miter;stroke:rgb(0%,0%,0%);stroke-opacity:1;stroke-miterlimit:10;" d="M 223.5625 134.992188 L 245.476562 144.589844 "/>
<path style="fill:none;stroke-width:1.2;stroke-linecap:butt;stroke-linejoin:miter;stroke:rgb(0%,0%,0%);stroke-opacity:1;stroke-miterlimit:10;" d="M 228.011719 130.792969 L 245.546875 138.472656 "/>
<path style="fill:none;stroke-width:1.2;stroke-linecap:butt;stroke-linejoin:miter;stroke:rgb(0%,0%,0%);stroke-opacity:1;stroke-miterlimit:10;" d="M 220.917969 111.210938 L 223.5625 134.992188 "/>
<path style="fill:none;stroke-width:1.2;stroke-linecap:butt;stroke-linejoin:miter;stroke:rgb(0%,0%,0%);stroke-opacity:1;stroke-miterlimit:10;" d="M 245.476562 144.589844 L 264.75 130.410156 "/>
<path style="fill:none;stroke-width:1.2;stroke-linecap:butt;stroke-linejoin:miter;stroke:rgb(0%,0%,0%);stroke-opacity:1;stroke-miterlimit:10;" d="M 264.75 130.410156 L 262.105469 106.632812 "/>
<path style="fill:none;stroke-width:1.2;stroke-linecap:butt;stroke-linejoin:miter;stroke:rgb(0%,0%,0%);stroke-opacity:1;stroke-miterlimit:10;" d="M 258.890625 128.65625 L 256.773438 109.632812 "/>
<path style="fill:none;stroke-width:1.2;stroke-linecap:butt;stroke-linejoin:miter;stroke:rgb(0%,0%,0%);stroke-opacity:1;stroke-miterlimit:10;" d="M 262.105469 106.632812 L 240.191406 97.03125 "/>
<path style="fill:none;stroke-width:1.2;stroke-linecap:butt;stroke-linejoin:miter;stroke:rgb(0%,0%,0%);stroke-opacity:1;stroke-miterlimit:10;" d="M 240.191406 97.03125 L 220.917969 111.210938 "/>
<path style="fill:none;stroke-width:1.2;stroke-linecap:butt;stroke-linejoin:miter;stroke:rgb(0%,0%,0%);stroke-opacity:1;stroke-miterlimit:10;" d="M 241.597656 102.984375 L 226.179688 114.328125 "/>
<path style="fill:none;stroke-width:1.2;stroke-linecap:butt;stroke-linejoin:miter;stroke:rgb(0%,0%,0%);stroke-opacity:1;stroke-miterlimit:10;" d="M 126.449219 124.394531 L 121.332031 101.019531 "/>
<path style="fill:none;stroke-width:1.2;stroke-linecap:butt;stroke-linejoin:miter;stroke:rgb(0%,0%,0%);stroke-opacity:1;stroke-miterlimit:10;" d="M 120.4375 123.261719 L 116.34375 104.5625 "/>
<path style="fill:none;stroke-width:1.2;stroke-linecap:butt;stroke-linejoin:miter;stroke:rgb(0%,0%,0%);stroke-opacity:1;stroke-miterlimit:10;" d="M 108.761719 140.511719 L 126.449219 124.394531 "/>
<path style="fill:none;stroke-width:1.2;stroke-linecap:butt;stroke-linejoin:miter;stroke:rgb(0%,0%,0%);stroke-opacity:1;stroke-miterlimit:10;" d="M 121.332031 101.019531 L 98.53125 93.761719 "/>
<path style="fill:none;stroke-width:1.2;stroke-linecap:butt;stroke-linejoin:miter;stroke:rgb(0%,0%,0%);stroke-opacity:1;stroke-miterlimit:10;" d="M 98.53125 93.761719 L 80.847656 109.878906 "/>
<path style="fill:none;stroke-width:1.2;stroke-linecap:butt;stroke-linejoin:miter;stroke:rgb(0%,0%,0%);stroke-opacity:1;stroke-miterlimit:10;" d="M 100.558594 99.535156 L 86.410156 112.429688 "/>
<path style="fill:none;stroke-width:1.2;stroke-linecap:butt;stroke-linejoin:miter;stroke:rgb(0%,0%,0%);stroke-opacity:1;stroke-miterlimit:10;" d="M 80.847656 109.878906 L 85.964844 133.253906 "/>
<path style="fill:none;stroke-width:1.2;stroke-linecap:butt;stroke-linejoin:miter;stroke:rgb(0%,0%,0%);stroke-opacity:1;stroke-miterlimit:10;" d="M 80.847656 109.878906 L 58.050781 102.621094 "/>
<path style="fill:none;stroke-width:1.2;stroke-linecap:butt;stroke-linejoin:miter;stroke:rgb(0%,0%,0%);stroke-opacity:1;stroke-miterlimit:10;" d="M 85.964844 133.253906 L 108.761719 140.511719 "/>
<path style="fill:none;stroke-width:1.2;stroke-linecap:butt;stroke-linejoin:miter;stroke:rgb(0%,0%,0%);stroke-opacity:1;stroke-miterlimit:10;" d="M 89.953125 128.613281 L 108.191406 134.417969 "/>
<path style="fill:none;stroke-width:1.2;stroke-linecap:butt;stroke-linejoin:miter;stroke:rgb(0%,0%,0%);stroke-opacity:1;stroke-miterlimit:10;" d="M 58.050781 102.621094 L 46.648438 98.996094 "/>
<path style="fill:none;stroke-width:1.2;stroke-linecap:butt;stroke-linejoin:miter;stroke:rgb(0%,0%,100%);stroke-opacity:1;stroke-miterlimit:10;" d="M 46.648438 98.996094 L 35.25 95.367188 "/>
<path style="fill:none;stroke-width:1.2;stroke-linecap:butt;stroke-linejoin:miter;stroke:rgb(0%,0%,0%);stroke-opacity:1;stroke-miterlimit:10;" d="M 57.476562 96.53125 L 48.355469 93.628906 "/>
<path style="fill:none;stroke-width:1.2;stroke-linecap:butt;stroke-linejoin:miter;stroke:rgb(0%,0%,100%);stroke-opacity:1;stroke-miterlimit:10;" d="M 48.355469 93.628906 L 39.238281 90.726562 "/>
<path style="fill:none;stroke-width:1.2;stroke-linecap:butt;stroke-linejoin:miter;stroke:rgb(0%,0%,0%);stroke-opacity:1;stroke-miterlimit:10;" d="M 54.0625 107.261719 L 44.941406 104.359375 "/>
<path style="fill:none;stroke-width:1.2;stroke-linecap:butt;stroke-linejoin:miter;stroke:rgb(0%,0%,100%);stroke-opacity:1;stroke-miterlimit:10;" d="M 44.941406 104.359375 L 35.824219 101.457031 "/>
<path style=" stroke:none;fill-rule:nonzero;fill:rgb(100%,100%,100%);fill-opacity:1;" d="M 28.25 89.867188 L 35.25 89.867188 L 35.25 100.867188 L 28.25 100.867188 Z M 28.25 89.867188 "/>
<g style="fill:rgb(0%,0%,100%);fill-opacity:1;">
  <use xlink:href="#glyph0-1" x="28.25" y="98.530273"/>
</g>
<path style="fill:none;stroke-width:1.2;stroke-linecap:butt;stroke-linejoin:miter;stroke:rgb(0%,0%,0%);stroke-opacity:1;stroke-miterlimit:10;" d="M 125.472656 168.277344 L 103.554688 158.675781 "/>
<path style="fill:none;stroke-width:1.2;stroke-linecap:butt;stroke-linejoin:miter;stroke:rgb(0%,0%,0%);stroke-opacity:1;stroke-miterlimit:10;" d="M 121.019531 172.472656 L 103.488281 164.792969 "/>
<path style="fill:none;stroke-width:1.2;stroke-linecap:butt;stroke-linejoin:miter;stroke:rgb(0%,0%,0%);stroke-opacity:1;stroke-miterlimit:10;" d="M 128.117188 192.058594 L 125.472656 168.277344 "/>
<path style="fill:none;stroke-width:1.2;stroke-linecap:butt;stroke-linejoin:miter;stroke:rgb(0%,0%,0%);stroke-opacity:1;stroke-miterlimit:10;" d="M 103.554688 158.675781 L 84.285156 172.855469 "/>
<path style="fill:none;stroke-width:1.2;stroke-linecap:butt;stroke-linejoin:miter;stroke:rgb(0%,0%,0%);stroke-opacity:1;stroke-miterlimit:10;" d="M 84.285156 172.855469 L 86.925781 196.636719 "/>
<path style="fill:none;stroke-width:1.2;stroke-linecap:butt;stroke-linejoin:miter;stroke:rgb(0%,0%,0%);stroke-opacity:1;stroke-miterlimit:10;" d="M 90.144531 174.613281 L 92.257812 193.636719 "/>
<path style="fill:none;stroke-width:1.2;stroke-linecap:butt;stroke-linejoin:miter;stroke:rgb(0%,0%,0%);stroke-opacity:1;stroke-miterlimit:10;" d="M 86.925781 196.636719 L 108.84375 206.238281 "/>
<path style="fill:none;stroke-width:1.2;stroke-linecap:butt;stroke-linejoin:miter;stroke:rgb(0%,0%,0%);stroke-opacity:1;stroke-miterlimit:10;" d="M 108.84375 206.238281 L 128.117188 192.058594 "/>
<path style="fill:none;stroke-width:1.2;stroke-linecap:butt;stroke-linejoin:miter;stroke:rgb(0%,0%,0%);stroke-opacity:1;stroke-miterlimit:10;" d="M 107.433594 200.285156 L 122.851562 188.941406 "/>
</g>
</svg>

<svg xmlns="http://www.w3.org/2000/svg" xmlns:xlink="http://www.w3.org/1999/xlink" width="300pt" height="300pt" viewBox="0 0 300 300"><defs><symbol overflow="visible"><path d="M.453 1.594v-7.938h4.5v7.938zm.5-.5h3.5v-6.938h-3.5zm0 0"/></symbol><symbol overflow="visible" id="a"><path d="M.89-6.563H2.08l2.906 5.485v-5.484h.86V0H4.656L1.75-5.484V0H.89zm0 0"/></symbol></defs><g><path fill="#fff" d="M0 0h300v300H0z"/><path d="M223.875 187.043l-9.723-6.973" stroke-width="1.2" stroke="#000" stroke-miterlimit="10" fill="none"/><path d="M214.152 180.07l-9.718-6.972M204.434 173.098l-11.356 3.76" stroke-width="1.2" stroke="#00f" stroke-miterlimit="10" fill="none"/><path d="M193.078 176.86l-11.355 3.765M204.29 149.168l.073 11.965" stroke-width="1.2" stroke="#000" stroke-miterlimit="10" fill="none"/><path d="M204.363 161.133l.07 11.965" stroke-width="1.2" stroke="#00f" stroke-miterlimit="10" fill="none"/><path d="M201.434 167.598h7v11h-7zm0 0" fill="#fff"/><use xlink:href="#a" x="201.434" y="176.261" fill="#00f"/><path d="M167.543 161.355m1.332 2.688l.84-.617m.492 3.304l1.68-1.234m-.352 3.926l2.52-1.856m-1.188 4.543l3.36-2.473m-2.028 5.16l4.198-3.09m-2.87 5.777l5.038-3.707m-3.707 6.4l5.878-4.33m-4.547 7.016l6.72-4.945m-6.59 5.21l6.805-5.003" stroke="#000" stroke-miterlimit="10" fill="none"/><path d="M167.543 161.355l-22.8-7.257M181.492 141.914l-13.95 19.44M144.742 154.098l4.504-22.45M144.742 154.098l-19.27 14.18M149.246 131.648l10.992 21.254M149.246 131.648l-22.797-7.253M170.5 120.66l-21.254 10.988M160.238 152.902l21.254-10.988M181.492 141.914L170.5 120.66M181.492 141.914l22.797 7.254" stroke-width="1.2" stroke="#000" stroke-miterlimit="10" fill="none"/><path d="M204.29 149.168l21.773-10.777-5.004-6.8zm0 0"/><path d="M223.563 134.992l21.914 9.598M228.012 130.793l17.535 7.68M220.918 111.21l2.644 23.782M245.477 144.59l19.273-14.18M264.75 130.41l-2.645-23.777M258.89 128.656l-2.117-19.023M262.105 106.633L240.19 97.03M240.19 97.03l-19.272 14.18M241.598 102.984l-15.418 11.344M126.45 124.395l-5.118-23.375M120.438 123.262l-4.094-18.7M108.762 140.512l17.687-16.117M121.332 101.02l-22.8-7.258M98.53 93.762L80.85 109.88M100.56 99.535L86.41 112.43M80.848 109.88l5.117 23.374M80.848 109.88l-22.797-7.26M85.965 133.254l22.797 7.258M89.953 128.613l18.238 5.805M58.05 102.62L46.65 98.997" stroke-width="1.2" stroke="#000" stroke-miterlimit="10" fill="none"/><path d="M46.648 98.996l-11.398-3.63" stroke-width="1.2" stroke="#00f" stroke-miterlimit="10" fill="none"/><path d="M57.477 96.53l-9.122-2.9" stroke-width="1.2" stroke="#000" stroke-miterlimit="10" fill="none"/><path d="M48.355 93.63l-9.117-2.903" stroke-width="1.2" stroke="#00f" stroke-miterlimit="10" fill="none"/><path d="M54.063 107.262l-9.122-2.903" stroke-width="1.2" stroke="#000" stroke-miterlimit="10" fill="none"/><path d="M44.94 104.36l-9.116-2.903" stroke-width="1.2" stroke="#00f" stroke-miterlimit="10" fill="none"/><path d="M28.25 89.867h7v11h-7zm0 0" fill="#fff"/><use xlink:href="#a" x="28.25" y="98.53" fill="#00f"/><path d="M125.473 168.277l-21.918-9.6M121.02 172.473l-17.532-7.68M128.117 192.06l-2.644-23.783M103.555 158.676l-19.27 14.18M84.285 172.855l2.64 23.782M90.145 174.613l2.113 19.024M86.926 196.637l21.918 9.6M108.844 206.238l19.273-14.18M107.434 200.285l15.418-11.344" stroke-width="1.2" stroke="#000" stroke-miterlimit="10" fill="none"/></g></svg>
